!!!!SEGMENT: pl-kk--kk-i-2--021-001_lilius-franciszek--missa-a-4-voci-kyrie.krn
!!!cenid: 16xx:1634
!!!COM: Lilius, Franciszek
!!!COM-rismid: pe30020509
!!!CDT: ~1600-1657
!!!CNT: Polish
!!!OPR: Missa a 4 voci
!!!OTL: Kyrie
!!!OMV: 001
!!!PDT:
!!!AGN: Sacred; Mass
!!!SMS-siglum: PL-Kk
!!!SMS-shelfmark: Kk.I.2
!!!SMS-shelfwork: 021-001 M
!!!NIFC-rismid: 300258037
!!!URL-scan: http://repozytorium.nifc.pl/skany/pl-kk-nut--i-2
!!!ONB-nifc: Części mszy: Kyrie, Gloria, Credo, Sanctus, Benedictus, Agnus Dei; skany: C: 0045; A: 0147-0148; T: 0250; B: 0349;
**kern	**text	**kern	**text	**kern	**text	**kern	**text
*part4	*part4	*part3	*part3	*part2	*part2	*part1	*part1
*staff4	*staff4	*staff3	*staff3	*staff2	*staff2	*staff1	*staff1
*I"BASVS	*	*I"TENOR	*	*I"ALTVS	*	*I"DISCANTVS	*
*I'B	*	*I'T	*	*I'A	*	*I'S	*
*Ibass	*	*Itenor	*	*Ialto	*	*Isoprn	*
*ICvox	*	*ICvox	*	*ICvox	*	*ICvox	*
*clefF4	*	*clefC4	*	*clefC4	*	*clefC3	*
*k[b-]	*	*k[b-]	*	*k[b-]	*	*k[b-]	*
*g:	*	*g:	*	*g:	*	*g:	*
*M2/1	*	*M2/1	*	*M2/1	*	*M2/1	*
*met(C|)	*	*met(C|)	*	*met(C|)	*	*met(C|)	*
=1-	=1-	=1-	=1-	=1-	=1-	=1-	=1-
!LO:TX:i:t=Miſſa A 4. Voc.\nFranciſci Lilÿ.	!	!LO:TX:i:t=Miſsa A. 4. Voc.\nFranciſci Lilÿ.	!	!LO:TX:i:t=Miſsa\nFrancisci Lilÿ. Tenor 2d(us)..	!	!LO:TX:i:t=Franciſci Lilÿ à 4. Voc.	!
0r	.	1.G/	Ky-	00r	.	00r	.
!	!	!LO:TX:t=P:problem:kreska pseudotaktowa	!	!	!	!	!
.	.	2G/	-ri-	.	.	.	.
=2-	=2-	=2-	=2-	=2-	=2-	=2-	=2-
1r	.	1B-\	-e	.	.	.	.
!	!	!LO:TX:t=P:problem:kreska pseudotaktowa	!	!	!	!	!
1.D\	Ky-	1A\	e-	.	.	.	.
=3-	=3-	=3-	=3-	=3-	=3-	=3-	=3-
.	.	1.d\	.	00r	.	0r	.
!LO:TX:t=P:problem:kreska pseudotaktowa	!	!	!	!	!	!	!
2D/	-ri-	.	.	.	.	.	.
1E-X\	-e-	.	.	.	.	.	.
!	!	!LO:TX:t=P:problem:kreska pseudotaktowa	!	!	!	!	!
.	.	2c\	.	.	.	.	.
=4-	=4-	=4-	=4-	=4-	=4-	=4-	=4-
!LO:TX:t=P:problem:kreska pseudotaktowa	!	!	!	!	!	!	!
1D\	.	2.d\	.	.	.	1r	.
.	.	4c\	.	.	.	.	.
1.G\	.	4B-\	.	.	.	2r	.
.	.	4A/	.	.	.	.	.
.	.	1B-\	.	.	.	1d\	Ky-
=5-	=5-	=5-	=5-	=5-	=5-	=5-	=5-
!	!	!	!	!LO:TX:t=P:problem:kreska pseudotaktowa	!	!	!
.	.	.	.	1r	.	.	.
!	!	!LO:TX:t=P:problem:kreska pseudotaktowa	!	!	!	!LO:TX:t=P:problem:kreska pseudotaktowa	!
2F/	.	2A/	.	.	.	2d\	-ri-
2E-X\	.	2G/	.	2r	.	1e-X\	-e
2C/	.	1c\	.	1G/	Ky-	.	.
=6-	=6-	=6-	=6-	=6-	=6-	=6-	=6-
0GG/	.	.	.	.	.	1d\	e-
.	.	4B-\	-ley-	2G/	-ri-	.	.
.	.	4A/	.	.	.	.	.
!	!	!LO:TX:t=P:problem:kreska pseudotaktowa	!	!	!	!	!
.	.	1G/	-ſon	1B-\	-e	1.g\	.
=7-	=7-	=7-	=7-	=7-	=7-	=7-	=7-
!	!	!LO:SIC:v:t=custos A	!	!	!	!	!
1D\	-ley-	1r	.	2A/	e-	.	.
.	.	.	.	1d\	.	2f\	.
!LO:TX:t=P:problem:kreska pseudotaktowa	!	!	!	!	!	!	!
1AA/	-ſon	1.A\	ky-	.	.	1eny\	ley-
.	.	.	.	4c\	.	.	.
.	.	.	.	4B-\	.	.	.
=8-	=8-	=8-	=8-	=8-	=8-	=8-	=8-
!	!	!	!	!LO:TX:t=P:problem:♯below	!	!LO:TX:t=P:problem:kreska pseudotaktowa	!
1r	.	.	.	1c#X\	-ley-	1e\	-ſon
!	!	!LO:TX:t=P:problem:kreska pseudotaktowa	!	!	!	!	!
.	.	2A/	-ri-	.	.	.	.
!	!	!	!	!LO:TX:t=P:problem:kreska pseudotaktowa	!	!	!
2r	.	1B-\	-e	1d\	-ſon	2.d\	e-
1D\	ky-	.	.	.	.	.	.
.	.	.	.	.	.	4e\	.
=9-	=9-	=9-	=9-	=9-	=9-	=9-	=9-
!	!	!LO:TX:t=P:problem:kreska pseudotaktowa	!	!	!	!	!
.	.	1A\	e-	0r	.	4f\	.
.	.	.	.	.	.	4g\	.
!LO:TX:t=P:problem:kreska pseudotaktowa	!	!	!	!	!	!	!
2D/	-ri-	.	.	.	.	1a\	.
1BB-/	-e	1.d\	-ley-	.	.	.	.
!	!	!	!	!	!	!LO:TX:t=P:problem:kreska pseudotaktowa	!
.	.	.	.	.	.	2g\	.
=10-	=10-	=10-	=10-	=10-	=10-	=10-	=10-
*	*	*	*	*	*ij	*	*
!LO:TX:t=P:problem:kreska pseudotaktowa	!	!	!	!	!	!	!
!LO:SIC:v:t=custos D	!	!	!	!	!	!	!
1AA/	e-	.	.	1.A\	Ky-	2f\	-ley-
.	.	2c#X\	-ſon	.	.	2e\	-ſon
!LO:LB:g=original	!	!LO:TX:t=P:problem:kreska pseudotaktowa	!	!	!	!	!
2.D/	.	1d\	.	.	.	2d\	Ky-
!	!	!	!	!LO:TX:t=P:problem:kreska pseudotaktowa	!	!	!
.	.	.	.	2A/	-ri-	1d\	-ri-
4C/	.	.	.	.	.	.	.
=11-	=11-	=11-	=11-	=11-	=11-	=11-	=11-
2BB-/	.	2r	.	1B-\	-e	.	.
!LO:TX:t=P:problem:kreska pseudotaktowa	!	!	!	!	!	!LO:TX:t=P:problem:kreska pseudotaktowa	!
2GG/	.	1D/	/ky-	.	.	2d\	-e
1D\	.	.	.	2A/	e-	1f\	e-
!	!	!LO:TX:t=P:problem:kreska pseudotaktowa	!	!	!	!	!
.	.	2F/	-ri-	1d\	-ley-	.	.
=12-	=12-	=12-	=12-	=12-	=12-	=12-	=12-
1AA/	.	2A/	-e	.	.	1e\	-le-
!	!	!	!	!LO:TX:t=P:problem:kreska pseudotaktowa	!	!	!
.	.	2.A/	e-	2cny\	-ſon	.	.
2.BB-/	.	.	.	1B-\	e-	0d\	-y-
.	.	4G/	-ley-	.	.	.	.
.	.	1G/	-ſon/	.	.	.	.
4C/	.	.	.	.	.	.	.
=13-	=13-	=13-	=13-	=13-	=13-	=13-	=13-
0D\	-ley-	.	.	0A\	-ley-	.	.
.	.	4F#X/	/e-	.	.	.	.
.	.	4E/	.	.	.	.	.
!	!	!LO:TX:a:t=P:problem:# above	!	!	!	!	!
.	.	1F#X/	-ley-	.	.	1d\	.
=14-	=14-	=14-	=14-	=14-	=14-	=14-	=14-
0GG/;l	-ſon	0G/l	-ſon/	0Bn\<l	-ſon	0d\l	-ſon.
!	!	!	!	!	!	!LO:LB:g=original	!
=15||-	=15||-	=15||-	=15||-	=15||-	=15||-	=15||-	=15||-
*M2/1	*	*M2/1	*	*M2/1	*Xij	*M2/1	*
*met(C|)	*	*met(C|)	*	*met(C|)	*	*met(C|)	*
00r	.	1.G/	Chri-	0r	.	00r	.
!	!	!LO:TX:t=P:problem:kreska pseudotaktowa	!	!	!	!	!
!	!	!LO:TX:b:t=P:problem:# below	!	!	!	!	!
.	.	2F#X/	-ſte	.	.	.	.
=16-	=16-	=16-	=16-	=16-	=16-	=16-	=16-
.	.	2G/	e-	2r	.	.	.
.	.	2B-\	.	1G/	Chry-	.	.
!	!	!LO:TX:t=P:problem:kreska pseudotaktowa	!	!	!	!	!
.	.	1A\	.	.	.	.	.
!	!	!	!	!LO:TX:t=P:problem:kreska pseudotaktowa	!	!	!
!	!	!	!	!LO:TX:b:t=P:problem:# below	!	!	!
.	.	.	.	2F#X/	.	.	.
=17-	=17-	=17-	=17-	=17-	=17-	=17-	=17-
!	!	!	!	!	!	!LO:TX:t=P:problem:kreska pseudotaktowa	!
0r	.	2.B-\	.	1G/	-ſte	1r	.
.	.	4A/	.	.	.	.	.
.	.	2G/	.	2B-y/	e-	1.d\	Chry-
!	!	!LO:TX:t=P:problem:kreska pseudotaktowa	!	!LO:TX:t=P:problem:kreska pseudotaktowa	!	!	!
.	.	2F/	.	2A/	.	.	.
=18-	=18-	=18-	=18-	=18-	=18-	=18-	=18-
!LO:TX:t=P:problem:kreska pseudotaktowa	!	!	!	!	!	!	!
1r	.	1E-X/	-ley-	1G/	.	.	.
!	!	!	!	!	!	!LO:TX:t=P:problem:kreska pseudotaktowa	!
.	.	.	.	.	.	2c/	-ſte
!	!	!LO:TX:t=P:problem:kreska pseudotaktowa	!	!	!	!	!
2r	.	1D/	-ſon	2Fny/	-ley-	1d\	e-
1D\	Chri-	.	.	2.F/	-ſon	.	.
=19-	=19-	=19-	=19-	=19-	=19-	=19-	=19-
*	*	*	*	*	*ij	*	*
.	.	2.A/	.	.	.	2f\	.
.	.	.	.	4G/	.	.	.
!LO:TX:t=P:problem:kreska pseudotaktowa	!	!	!	!LO:TX:t=P:problem:kreska pseudotaktowa	!	!LO:TX:t=P:problem:kreska pseudotaktowa	!
2C/	-ſte	.	.	2A/	.	2e\	.
.	.	4G/	.	.	.	.	.
!	!	!LO:TX:t=P:problem:kreska pseudotaktowa	!	!	!	!	!
2D/	e-	1F/	.	2B-\	Chry-	1d\	.
1F\	.	.	.	1A\	-ſte	.	.
=20-	=20-	=20-	=20-	=20-	=20-	=20-	=20-
.	.	0r	.	.	.	1c\	.
!	!	!	!	!LO:TX:t=P:problem:kreska pseudotaktowa	!	!	!
2Eny\	.	.	.	2G/	3-	.	.
2D/	.	.	.	2F/	-ley-	2B-/	.
!LO:TX:t=P:problem:kreska pseudotaktowa	!	!	!	!LO:TX:t=P:problem:kreska pseudotaktowa	!	!	!
2C/	.	.	.	2E/	-ſon	1A/	ley-
=21-	=21-	=21-	=21-	=21-	=21-	=21-	=21-
1BB-/	.	1.d\	Chr(is-	2.D/	Chry-	.	.
!	!	!	!	!	!	!LO:TX:t=P:problem:kreska pseudotaktowa	!
.	.	.	.	.	.	2G/	.
.	.	.	.	4E/	-ſte	.	.
1AA/	-ley-	.	.	2F/	e-	1A/	-ſon
!	!	!LO:TX:t=P:problem:kreska pseudotaktowa	!	!	!	!	!
!	!	!LO:TX:a:t=P:problem:# above	!	!LO:TX:t=P:problem:kreska pseudotaktowa	!	!	!
.	.	2c#X\	-t)e	2E/	.	.	.
=22-	=22-	=22-	=22-	=22-	=22-	=22-	=22-
!LO:TX:t=P:problem:kreska pseudotaktowa	!	!	!	!	!	!	!
1D\	-ſon	1d\	e-	4D/	-ley-	2r	.
.	.	.	.	4E/	.	.	.
*	*	*	*	*	*	*	*ij
.	.	.	.	4F/	.	1d\	Chry-
.	.	.	.	4G/	.	.	.
!	!	!	!	!LO:TX:t=P:problem:kreska pseudotaktowa	!	!	!
!	!	!	!	!LO:SIC:v:t=custos B	!	!	!
1r	.	2f\	.	1A\	.	.	.
!	!	!LO:TX:t=P:problem:kreska pseudotaktowa	!	!	!	!LO:TX:t=P:problem:kreska pseudotaktowa	!
.	.	2e\	.	.	.	2c#X/	-ſte
!	!	!	!	!LO:LB:g=original	!	!	!
=23-	=23-	=23-	=23-	=23-	=23-	=23-	=23-
2r	.	2.d\	.	1B-\	-ſon	2d\	e-
*	*ij	*	*	*	*Xij	*	*
1G\	Chri-	.	.	.	.	2B-/	-ley-
.	.	4c\	.	.	.	.	.
.	.	2B-\	.	2r	.	2.d\	-ſon
!LO:TX:t=P:problem:kreska pseudotaktowa	!	!LO:TX:t=P:problem:kreska pseudotaktowa	!	!	!	!	!
2F#X\	-ſte	2A/	.	1d\	Ch(ris-	.	.
.	.	.	.	.	.	4cny/	Chry-
=24-	=24-	=24-	=24-	=24-	=24-	=24-	=24-
!	!	!LO:SIC:v:t=custos d	!	!	!	!	!
1G\	e-	2G/	.	.	.	4B-/	-ſte
.	.	.	.	.	.	4G/	e-
!	!	!	!	!LO:TX:t=P:problem:kreska pseudotaktowa	!	!	!
.	.	1d\	.	2B-\	-t)e	2g\	-ley-
!	!	!	!	!	!	!LO:TX:t=P:problem:kreska pseudotaktowa	!
2B-\	-ley-	.	.	2d\	e-	1f\	-ſon
!LO:TX:t=P:problem:kreska pseudotaktowa	!	!	!	!	!	!	!
!LO:SIC:v:t=custos G	!	!LO:TX:t=P:problem:kreska pseudotaktowa	!	!	!	!	!
2A\	-ſon	2c\	.	2f\	-le-	.	.
*	*	*	*	*	*	*	*Xij
!LO:LB:g=original	!	!	!	!	!	!	!
=25-	=25-	=25-	=25-	=25-	=25-	=25-	=25-
2G\	Chri-	2B-\	.	2e\	-y-	2r	.
2Fny\	-ſte	2A/	.	2d\	-ſon	1d\	Chr(is-
!	!	!	!	!LO:TX:t=P:problem:kreska pseudotaktowa	!	!	!
1E\	e-	1G/	.	1e\	.	.	.
!	!	!	!	!	!	!LO:TX:t=P:problem:kreska pseudotaktowa	!
!	!	!	!	!	!	!LO:SIC:v:t=custos d	!
.	.	.	.	.	.	2c#X/	-t)e
!	!	!	!	!	!	!LO:LB:g=original	!
=26-	=26-	=26-	=26-	=26-	=26-	=26-	=26-
*	*	*	*	*	*ij	*	*
!	!	!LO:TX:t=P:problem:kreska pseudotaktowa	!	!	!	!	!
1D\	-ley-	1F/	.	2A/	Chr(is-	2d\	e-
!	!	!	!	!	!	!LO:TX:t=P:problem:kreska pseudotaktowa	!
.	.	.	.	2A/	-t)e	2f\	-ley
1GG/	.	1B-\	.	1.G/	e-	2e\	.
!	!	!	!	!	!	!LO:TX:t=P:problem:kreska pseudotaktowa	!
.	.	.	.	.	.	2d\	.
=27-	=27-	=27-	=27-	=27-	=27-	=27-	=27-
0AA/	.	0A\	-ley-	.	.	2c#X/	.
.	.	.	.	2F/	.	1d\	.
.	.	.	.	1E/	-ley-	.	.
.	.	.	.	.	.	2c#X/	-ſon.
=28-	=28-	=28-	=28-	=28-	=28-	=28-	=28-
0D\l	-ſon	0A\l	-ſon	0F/l	-ſon	0d\l	.
*	*Xij	*	*	*	*Xij	*	*
!	!	!	!	!LO:PB:g=original	!	!LO:LB:g=original	!
=29||-	=29||-	=29||-	=29||-	=29||-	=29||-	=29||-	=29||-
*M2/1	*	*M2/1	*	*M2/1	*Xij	*M2/1	*
*met(C|)	*	*met(C|)	*	*met(C|)	*	*met(C|)	*
!	!	!LO:N:acc=#	!	!	!	!	!
!	!	!LO:TX:a:t=P:problem:# above	!	!	!	!	!
1.GG/	Ky-	1.Bn\	Ky-	1.G/	Ky-	1.d\	Ky-
!	!	!LO:TX:t=P:problem:kreska pseudotaktowa	!	!	!	!	!
!	!	!LO:N:acc=#	!	!	!	!	!
!	!	!LO:TX:a:t=P:problem:# above	!	!LO:TX:t=P:problem:kreska pseudotaktowa	!	!LO:TX:t=P:problem:kreska pseudotaktowa	!
2GG/	-ri-	2Bn\	-ri-	2G/	-ri-	2d\	-ri-
=30-	=30-	=30-	=30-	=30-	=30-	=30-	=30-
!	!	!LO:N:acc=#	!	!	!	!	!
!LO:TX:t=P:problem:kreska pseudotaktowa	!	!LO:TX:a:t=P:problem:# above	!	!	!	!	!
1GG/	-e	1Bn\	-e	1G/	-e	1d\	-e
!	!	!	!	!LO:TX:t=P:problem:kreska pseudotaktowa	!	!LO:TX:t=P:problem:kreska pseudotaktowa	!
1C/	e-	1c\	e-	1G/	e-	1e\	e-
=31-	=31-	=31-	=31-	=31-	=31-	=31-	=31-
!	!	!LO:TX:t=P:problem:kreska pseudotaktowa	!	!	!	!	!
1BB-/	.	1d\	.	1B-\	.	1.f\	.
2AA/	.	2c\	.	1.F/	.	.	.
!LO:TX:t=P:problem:kreska pseudotaktowa	!	!	!	!	!	!LO:TX:t=P:problem:kreska pseudotaktowa	!
2BB-/	.	1B-\	.	.	.	2d\	.
=32-	=32-	=32-	=32-	=32-	=32-	=32-	=32-
1FF/	-ley-	.	.	.	.	1cny\	-ley-
!	!	!LO:TX:t=P:problem:kreska pseudotaktowa	!	!LO:TX:t=P:problem:kreska pseudotaktowa	!	!	!
.	.	2A/	-ley-	2F/	-ley-	.	.
2BB-/	-ſon	2B-\	-ſon	2F/	-ſon	2d\	-ſon
*	*	*	*	*	*ij	*	*ij
!	!	!	!	!	!	!LO:TX:t=P:problem:kreska pseudotaktowa	!
2.FF/	ky-	2.c\	ky-	2.A/	Ky-	2.f\	e-
=33-	=33-	=33-	=33-	=33-	=33-	=33-	=33-
.	.	.	.	.	.	.	.
4FF/	-ri-	4c\	-rie	4A/	-ri-	4f\	-ley-
!LO:TX:t=P:problem:kreska pseudotaktowa	!	!LO:TX:t=P:problem:kreska pseudotaktowa	!	!	!	!	!
2GG/	-e	2B-\	e-	1G/	-e	2d\	.
1D\	e-	1A\	-ley-	.	.	1d\	.
!	!	!	!	!LO:TX:t=P:problem:kreska pseudotaktowa	!	!	!
.	.	.	.	2F#X/	e-	.	.
=34-	=34-	=34-	=34-	=34-	=34-	=34-	=34-
!	!	!	!	!	!	!LO:TX:t=P:problem:kreska pseudotaktowa	!
2GG/	-ley-	1B-\	-ſon	2G/	-ley-	0d\	-ſon
*	*	*	*	*	*	*	*Xij
2.G\	-ſon	.	.	2.B-\	-ſon	.	.
!	!	!LO:SIC:v:t=custos d	!	!	!	!	!
*	*ij	*	*	*	*	*	*
.	.	2r	.	.	.	.	.
4G\	ky-	.	.	4B-\	Ky-	.	.
!LO:TX:t=P:problem:kreska pseudotaktowa	!	!	!	!	!	!	!
!LO:TX:a:t=P:problem:# above	!	!	!	!LO:TX:t=P:problem:kreska pseudotaktowa	!	!	!
2F#X\	-ri-	2.d\	/ky-	2A/	-ri-	.	.
=35-	=35-	=35-	=35-	=35-	=35-	=35-	=35-
2G\	-e	.	.	2B-\	-e	2r	.
.	.	4d\	-ri-	.	.	.	.
!LO:TX:t=P:problem:kreska pseudotaktowa	!	!	!	!	!	!	!
!LO:SIC:v:t=custos D	!	!LO:TX:t=P:problem:kreska pseudotaktowa	!	!	!	!	!
2E-X\	ley-	2c\	-e	2G/	e-	2.g\	Ky-
!LO:LB:g=original	!	!	!	!	!	!	!
!LO:TX:t=P:problem:kreska pseudotaktowa	!	!	!	!	!	!	!
1D\	-ſon	2d\	e-	1A\	-ley-	.	.
*	*Xij	*	*	*	*	*	*
.	.	.	.	.	.	4g\	-ri-
!	!	!LO:TX:t=P:problem:kreska pseudotaktowa	!	!	!	!LO:TX:t=P:problem:kreska pseudotaktowa	!
.	.	2A/	-ley-	.	.	2f#X\	-e
=36-	=36-	=36-	=36-	=36-	=36-	=36-	=36-
!	!	!	!	!LO:TX:t=P:problem:kreska pseudotaktowa	!	!	!
2r	.	2B-,<\	-ſon/	1G/	-ſon	2g\	[e]-
2.G\	ky-	2.B-\	Ky-	.	.	2e\	-ley-
!	!	!	!	!	!	!LO:TX:t=P:problem:kreska pseudotaktowa	!
.	.	.	.	2r	.	1d\	-ſon
4G\	-ri-	4B-\	-ri-	.	.	.	.
*	*	*	*	*	*Xij	*	*
!LO:TX:t=P:problem:kreska pseudotaktowa	!	!LO:TX:t=P:problem:kreska pseudotaktowa	!	!	!	!	!
2F#X\	-e	2A\	-e	2.d\	Ky-	.	.
=37-	=37-	=37-	=37-	=37-	=37-	=37-	=37-
2G\	e-	2B-\	e-	.	.	2r	.
.	.	.	.	4d\	-ri-	.	.
*	*	*	*	*	*	*	*ij
!LO:TX:t=P:problem:kreska pseudotaktowa	!	!LO:TX:t=P:problem:kreska pseudotaktowa	!	!LO:TX:t=P:problem:kreska pseudotaktowa	!	!	!
2E-X\	.	2G/	-ley-	2c\	-e	2.g\	Ky-
!	!	!	!	!LO:SIC:v:t=custos A	!	!	!
1D\	-ley-	2A\	-ſon	2d\	e	.	.
!	!	!	!	!	!	!LO:SIC:v:t=custos f	!
.	.	.	.	.	.	4g\	-ri-
!	!	!	!	!LO:LB:g=original	!	!	!
!	!	!	!	!LO:TX:t=P:problem:kreska pseudotaktowa	!	!LO:TX:t=P:problem:kreska pseudotaktowa	!
.	.	2.d\	Ky-	2A/	-ley-	2f#X\	-e
!	!	!	!	!	!	!LO:LB:g=original	!
=38-	=38-	=38-	=38-	=38-	=38-	=38-	=38-
2BB-/	-ſon	.	.	1.G/	-ſon	2g\	e-
.	.	4d\	-ri-	.	.	.	.
!LO:TX:t=P:problem:kreska pseudotaktowa	!	!LO:TX:t=P:problem:kreska pseudotaktowa	!	!	!	!	!
2C/	.	2c\	-e	.	.	2e\	-ley-
1GG/	.	2d\	e-	.	.	2.d\	-ſon
*	*ij	*	*	*	*ij	*	*
!	!	!LO:TX:t=P:problem:kreska pseudotaktowa	!	!	!	!	!
.	.	2B-\	-ley-	2.d\	Ky-	.	.
!	!	!	!	!	!	!LO:TX:t=P:problem:kreska pseudotaktowa	!
.	.	.	.	.	.	4e\	e-
=39-	=39-	=39-	=39-	=39-	=39-	=39-	=39-
2D/	e-	2A\	-ſon/	.	.	2f#X\	-ley-
.	.	.	.	4d\	-ri-	.	.
!	!	!	!	!LO:TX:t=P:problem:kreska pseudotaktowa	!	!LO:TX:t=P:problem:kreska pseudotaktowa	!
2E-X\	.	2G/	/Ky-	2B-\	-e	2g\	-ſon
0D\	-ley-	2F#X/	-ri-	2d\	e-	2a\	e-
!	!	!LO:TX:t=P:problem:kreska pseudotaktowa	!	!	!	!	!
.	.	2D/	-e	2B-\	.	1g\	-ley-
=40-	=40-	=40-	=40-	=40-	=40-	=40-	=40-
.	.	1d\	ley-	1A\	-ley-	.	.
.	.	.	.	.	.	2f#X\	.
!	!	!	!	!LO:N:acc=#	!	!	!
1GG/l	-ſon	1d\l	-ſon/	1Bn\l	-ſon	1g\l	-ſon
==	==	==	==	==	==	==	==
*-	*-	*-	*-	*-	*-	*-	*-
!!!system-decoration: [(*)]
!!!AIN: 1 alto 1 bass 1 soprn 1 tenor
!!!ENC: Filip Voros
!!!END: 2022-01-08
!!!RDF**kern: l = terminal long
!!!EED: Andrzej Borzym
!!!EST: 2022-01-09
